assets/icons/24px/stroke/phone-call-24px.svg

<svg width="24" height="24" viewBox="0 0 24 24" fill="none" xmlns="http://www.w3.org/2000/svg">
<g clip-path="url(#clip0_878_25218)">
<path fill-rule="evenodd" clip-rule="evenodd" d="M6.43865 5.54053L5.20714 6.77209C4.53561 7.44361 4.39528 8.59114 5.05521 10.2742C5.69938 11.917 7.00839 13.7592 8.62459 15.3754C10.2408 16.9916 12.083 18.3006 13.7258 18.9448C15.4089 19.6047 16.5564 19.4644 17.2279 18.7929L18.4594 17.5614C18.9227 17.0981 18.8227 16.3218 18.2571 15.991L17.3434 15.4567C17.011 15.2623 16.5965 15.2761 16.2777 15.4921L15.7431 15.8543C14.7507 16.5266 13.4208 16.4 12.5732 15.5524L8.44753 11.427C7.59991 10.5794 7.47324 9.24938 8.14561 8.25698L8.50797 7.72214C8.72398 7.40333 8.73772 6.98881 8.5433 6.65639L8.00898 5.74278C7.67819 5.1772 6.90195 5.07722 6.43865 5.54053ZM3.79291 5.35788L5.02441 4.12634C6.41431 2.73641 8.74304 3.03633 9.73539 4.73309L10.2697 5.6467C10.853 6.64395 10.8117 7.88751 10.1637 8.84396L9.80137 9.37879C9.66689 9.57727 9.69223 9.84327 9.86175 10.0128L13.9873 14.1381C14.1568 14.3076 14.4228 14.333 14.6213 14.1985L15.1559 13.8363C16.1123 13.1883 17.3558 13.1471 18.353 13.7303L19.2667 14.2646C20.9635 15.2569 21.2635 17.5857 19.8736 18.9756L18.6421 20.2071C17.1136 21.7356 14.9318 21.5659 12.9957 20.8068C11.0195 20.0319 8.95292 18.5321 7.21038 16.7896C5.46784 15.0471 3.96811 12.9805 3.19323 11.0043C2.43411 9.06824 2.26444 6.88637 3.79291 5.35788C3.79292 5.35788 3.79291 5.35789 3.79291 5.35788Z" fill="white"/>
</g>
<defs>
<clipPath id="clip0_878_25218">
<rect width="24" height="24" fill="white"/>
</clipPath>
</defs>
</svg>

<svg width="24" height="24" fill="none" xmlns="http://www.w3.org/2000/svg"><g clip-path="url(#clip0_878_25218)"><path fill-rule="evenodd" clip-rule="evenodd" d="M6.439 5.54L5.207 6.773c-.671.672-.812 1.82-.152 3.502.644 1.643 1.953 3.485 3.57 5.101 1.616 1.617 3.458 2.926 5.1 3.57 1.684.66 2.831.52 3.503-.152l1.231-1.232a1 1 0 0 0-.202-1.57l-.914-.534a1 1 0 0 0-1.065.035l-.535.362a2.5 2.5 0 0 1-3.17-.302l-4.125-4.125a2.5 2.5 0 0 1-.302-3.17l.362-.535a1 1 0 0 0 .035-1.066l-.534-.913a1 1 0 0 0-1.57-.202zm-2.646-.182l1.231-1.232a3 3 0 0 1 4.711.607l.535.914a3 3 0 0 1-.106 3.197l-.363.535a.5.5 0 0 0 .06.634l4.126 4.125a.5.5 0 0 0 .634.06l.535-.362a3 3 0 0 1 3.197-.106l.914.535a3 3 0 0 1 .607 4.71l-1.232 1.232c-1.528 1.529-3.71 1.359-5.646.6-1.976-.775-4.043-2.275-5.786-4.017-1.742-1.743-3.242-3.81-4.017-5.786-.759-1.936-.929-4.118.6-5.646z" fill="#fff"/></g><defs><clipPath id="clip0_878_25218"><path fill="#fff" d="M0 0H24V24H0z"/></clipPath></defs></svg>
